X:1
T:In That Home Over There
T:In That Home Over There
T:R. A. Glenn
T:R. A. Glenn, 1877
T:Public Domain Courtesy of the Cyber Hymnal™
C:R. A. Glenn
Z:Public Domain
Z:Courtesy of the Cyber Hymnal™
%%score 1 ( 2 3 )
L:1/8
Q:1/4=100
M:4/4
K:C
V:1 treble 
V:2 bass 
V:3 bass 
V:1
 [EG][EG] | [Ge]2 [Fd][Fc] [Fd]2 [Fc]>[FA] | [EG]6 [EG][EG] | [Ec]2 [GB][FA] [EG]2 [EG][CE] | %4
w: 1.~In that|beau- ti- ful home o- ver|there, Where the|flow- ers shall fade ne- ver-|
w: 2.~We will|sing in that beau- ti- ful|home, When the|robe and the crown we shall|
w: 3.~To our|boun- ti- ful Giv- er a-|bove, All ar-|rayed in His splen- dor so|
 [B,D]6 [CE][DF] | [EG]2 [Ec][Ec] [Ge]2 [Fd][Ec] | [FA]6 [FA][FA] | [EG]2 [EG][Ec] [FB]2 [FA][FB] | %8
w: more; There the|sun ev- er shines bright and|fair, On the|banks of the pearl- y white|
w: wear, And the|King in His beau- ty be-|hold On His|throne with the an- gels so|
w: fair; We will|sing ev- er- more of His|love, When we|meet in that home o- ver|
 [Ec]6 ||"^Refrain" [DB][Ec] | [Fd]6 [Ec][Gd] | [Ge]6 [EG][EG] | [FA]2 [FA][FA] [Ac]2 [Ac][FA] | %13
w: shore.|||||
w: fair.|In that|home o- ver|there, In that|beau- ti- ful home o- ver|
w: there.|||||
 [EG]6 [EG][EG] | [Ec]2 [Ec][Ec] [Ge]2 [Fd][Ec] | [FA]6 [Ac][FA] | [EG]2 [Ec][Gd] [Ge]2 [Gd][Fd] | %17
w: ||||
w: there, We will|shine as the stars ev- er-|more, In that|beau- ti- ful home o- ver|
w: ||||
 [Ec]6 |] %18
w: |
w: there.|
w: |
V:2
 [C,C][C,C] | [C,C]2 [C,C][C,A,] [F,A,]2 [F,A,]>[F,C] | [C,C]6 [C,C][C,C] | %3
w: ~ ~|~ ~ ~ ~ ~ ~|~ ~ ~|
 [C,C]2 [C,C][C,C] [C,C]2 [C,C][C,G,] | [G,,G,]6 [C,G,][C,G,] | %5
w: ~ ~ ~ ~ ~ ~|~ ~ ~|
 [C,C]2 [C,C][C,C] [C,C]2 [C,C][C,C] | [F,C]6 [F,C][F,C] | [G,C]2 [G,C][G,C] [G,D]2 [G,D][G,D] | %8
w: ~ ~ ~ ~ ~ ~|~ ~ ~|~ ~ ~ ~ ~ ~|
 [C,C]6 || G,G, | [G,B,]2 [G,B,][G,B,] [G,B,]2 [G,C][G,B,] | [C,C]2 [C,C][C,C] [C,C]2 [C,C][C,C] | %12
w: ~|~ ~|beau- ti- ful home, ~ ~|~ by and by ~ ~|
 [F,C]2 [F,C][F,C] [F,C]2 [F,C][F,C] | [C,C]2 [C,C][C,C] [C,C]2 [C,C][C,C] | %14
w: ~ ~ ~ ~ ~ ~|~ by and by ~ ~|
 [C,G,]2 [C,G,][C,G,] [C,C]2 [C,C][C,C] | [F,C]2 [F,C][F,C] [F,C]2 [F,C][F,C] | %16
w: ~ ~ ~ ~ ~ ~|~ by and by * *|
 [G,C]2 G,[G,B,] [G,C]2 [G,B,][G,B,] | [C,C]6 |] %18
w: ||
V:3
 x2 | x8 | x8 | x8 | x8 | x8 | x8 | x8 | x6 || G,G, | x8 | x8 | x8 | x8 | x8 | x8 | x2 G, x5 | %17
 x6 |] %18

